packages/dnb-ui-lib/assets/icons/pension.svg

<svg width="16" height="16" viewBox="0 0 16 16" fill="none" xmlns="http://www.w3.org/2000/svg">
<path d="M6.6 11.719C6.6 13.2654 5.3464 14.519 3.8 14.519C2.2536 14.519 1 13.2654 1 11.719C1 10.1726 2.2536 8.91901 3.8 8.91901C5.3464 8.91901 6.6 10.1726 6.6 11.719ZM6.6 11.719V7.99994M1.10018 10.9755L3.39182 2.65012C3.49672 2.26875 3.73645 1.9384 4.06649 1.7204C4.39653 1.50241 4.79446 1.41159 5.1864 1.4648C5.57834 1.51801 5.93765 1.71164 6.19763 2.00974C6.45761 2.30783 6.60058 2.69014 6.6 3.08567V5.49994M9.4 11.719C9.4 13.2654 10.6536 14.519 12.2 14.519C13.7464 14.519 15 13.2654 15 11.719C15 10.1726 13.7464 8.91901 12.2 8.91901C10.6536 8.91901 9.4 10.1726 9.4 11.719ZM9.4 11.719V7.99994M14.8998 10.9736L12.6082 2.65012C12.5033 2.26875 12.2636 1.9384 11.9335 1.7204C11.6035 1.50241 11.2055 1.41159 10.8136 1.4648C10.4217 1.51801 10.0623 1.71164 9.80237 2.00974C9.5424 2.30783 9.39942 2.69014 9.4 3.08567V5.49994M6.6 5.49994V7.99994M6.6 5.49994H9.4M6.6 7.99994H9.4M9.4 7.99994V5.49994" stroke="black" stroke-width="1.5" stroke-linecap="round" stroke-linejoin="round"/>
</svg>

<svg width="16" height="16" viewBox="0 0 16 16" fill="none" xmlns="http://www.w3.org/2000/svg"><path d="M6.6 11.719a2.8 2.8 0 11-5.6 0 2.8 2.8 0 015.6 0zm0 0v-3.72m-5.5 2.977L3.392 2.65a1.633 1.633 0 013.208.436V5.5m2.8 6.219a2.8 2.8 0 105.6 0 2.8 2.8 0 00-5.6 0zm0 0v-3.72m5.5 2.975L12.608 2.65a1.633 1.633 0 00-3.208.436V5.5m-2.8 0V8m0-2.5h2.8M6.6 8h2.8m0 0V5.5" stroke="#000" stroke-width="1.5" stroke-linecap="round" stroke-linejoin="round"/></svg>
